src/assets/img/info1.svg

<svg width="415" height="34" viewBox="0 0 415 34" fill="none" xmlns="http://www.w3.org/2000/svg">
<path d="M163.193 32.4346L178.466 16.9949L178.915 16.5404L178.466 16.0859L163.193 0.64627L185.37 0.646266L201.092 16.5404L185.37 32.4346L163.193 32.4346Z" stroke="#922630" strokeWidth="1.29251"/>
<path opacity="0.8" d="M129.302 32.4346L144.575 16.9949L145.025 16.5404L144.575 16.0859L129.302 0.64627L151.479 0.646266L167.202 16.5404L151.479 32.4346L129.302 32.4346Z" stroke="#922630" strokeWidth="1.29251"/>
<path opacity="0.7" d="M117.858 1.10634e-05L93.8633 1.52588e-05L110.225 16.5404L93.8633 33.0808L117.858 33.0808L134.22 16.5404L117.858 1.10634e-05Z" fill="#922630"/>
<path opacity="0.5" d="M73.6781 16.953L74.1234 16.5L73.6781 16.047L58.5413 0.646254L80.5118 0.646251L96.0939 16.5L80.5118 32.3537L58.5413 32.3538L73.6781 16.953Z" stroke="#922630" strokeWidth="1.29251"/>
<path opacity="0.3" d="M39.6781 16.953L40.1234 16.5L39.6781 16.047L24.5413 0.646254L46.5118 0.646251L62.0939 16.5L46.5118 32.3537L24.5413 32.3538L39.6781 16.953Z" stroke="#922630" strokeWidth="1.29251"/>
<path d="M12.7828 1.11005e-05L-11 1.52588e-05L5.21722 16.5L-11 33L12.7828 33L29 16.5L12.7828 1.11005e-05Z" fill="#922630" fillOpacity="0.1"/>
<path d="M237.46 24.4601C237.62 24.4601 237.78 24.4934 237.94 24.5601C238.1 24.6134 238.253 24.7134 238.4 24.8601L241.08 27.6801C239.907 29.2134 238.433 30.3734 236.66 31.1601C234.9 31.9334 232.813 32.3201 230.4 32.3201C228.187 32.3201 226.2 31.9468 224.44 31.2001C222.693 30.4401 221.207 29.4001 219.98 28.0801C218.767 26.7468 217.833 25.1734 217.18 23.3601C216.527 21.5334 216.2 19.5534 216.2 17.4201C216.2 15.2468 216.553 13.2534 217.26 11.4401C217.967 9.61342 218.96 8.04009 220.24 6.72009C221.52 5.40009 223.053 4.37342 224.84 3.64009C226.627 2.90676 228.593 2.54009 230.74 2.54009C231.833 2.54009 232.86 2.64009 233.82 2.84009C234.793 3.02676 235.7 3.29342 236.54 3.64009C237.38 3.97342 238.153 4.38009 238.86 4.86009C239.567 5.34009 240.193 5.86009 240.74 6.42009L238.46 9.48009C238.313 9.66676 238.14 9.84009 237.94 10.0001C237.74 10.1468 237.46 10.2201 237.1 10.2201C236.86 10.2201 236.633 10.1668 236.42 10.0601C236.207 9.95342 235.98 9.82676 235.74 9.68009C235.5 9.52009 235.233 9.35342 234.94 9.18009C234.66 8.99342 234.32 8.82676 233.92 8.68009C233.533 8.52009 233.073 8.38676 232.54 8.28009C232.02 8.17342 231.407 8.12009 230.7 8.12009C229.58 8.12009 228.553 8.32676 227.62 8.74009C226.7 9.15342 225.9 9.76009 225.22 10.5601C224.553 11.3468 224.033 12.3201 223.66 13.4801C223.3 14.6268 223.12 15.9401 223.12 17.4201C223.12 18.9134 223.32 20.2401 223.72 21.4001C224.133 22.5601 224.687 23.5401 225.38 24.3401C226.087 25.1268 226.907 25.7268 227.84 26.1401C228.773 26.5534 229.773 26.7601 230.84 26.7601C231.453 26.7601 232.013 26.7334 232.52 26.6801C233.027 26.6134 233.5 26.5134 233.94 26.3801C234.38 26.2334 234.793 26.0468 235.18 25.8201C235.567 25.5801 235.96 25.2801 236.36 24.9201C236.52 24.7868 236.693 24.6801 236.88 24.6001C237.067 24.5068 237.26 24.4601 237.46 24.4601ZM252.441 10.9401C254.015 10.9401 255.448 11.1868 256.741 11.6801C258.035 12.1734 259.141 12.8801 260.061 13.8001C260.995 14.7201 261.715 15.8401 262.221 17.1601C262.741 18.4668 263.001 19.9401 263.001 21.5801C263.001 23.2334 262.741 24.7268 262.221 26.0601C261.715 27.3801 260.995 28.5068 260.061 29.4401C259.141 30.3601 258.035 31.0734 256.741 31.5801C255.448 32.0734 254.015 32.3201 252.441 32.3201C250.855 32.3201 249.408 32.0734 248.101 31.5801C246.808 31.0734 245.688 30.3601 244.741 29.4401C243.808 28.5068 243.081 27.3801 242.561 26.0601C242.055 24.7268 241.801 23.2334 241.801 21.5801C241.801 19.9401 242.055 18.4668 242.561 17.1601C243.081 15.8401 243.808 14.7201 244.741 13.8001C245.688 12.8801 246.808 12.1734 248.101 11.6801C249.408 11.1868 250.855 10.9401 252.441 10.9401ZM252.441 27.7201C253.868 27.7201 254.915 27.2201 255.581 26.2201C256.261 25.2068 256.601 23.6734 256.601 21.6201C256.601 19.5668 256.261 18.0401 255.581 17.0401C254.915 16.0401 253.868 15.5401 252.441 15.5401C250.975 15.5401 249.901 16.0401 249.221 17.0401C248.541 18.0401 248.201 19.5668 248.201 21.6201C248.201 23.6734 248.541 25.2068 249.221 26.2201C249.901 27.2201 250.975 27.7201 252.441 27.7201ZM271.843 13.5001C272.243 13.1268 272.657 12.7801 273.083 12.4601C273.51 12.1401 273.963 11.8734 274.443 11.6601C274.937 11.4334 275.463 11.2601 276.023 11.1401C276.597 11.0068 277.217 10.9401 277.883 10.9401C279.017 10.9401 280.017 11.1401 280.883 11.5401C281.763 11.9268 282.503 12.4734 283.103 13.1801C283.703 13.8734 284.157 14.7068 284.463 15.6801C284.77 16.6401 284.923 17.6868 284.923 18.8201V32.0001H278.723V18.8201C278.723 17.8068 278.49 17.0201 278.023 16.4601C277.557 15.8868 276.87 15.6001 275.963 15.6001C275.283 15.6001 274.643 15.7468 274.043 16.0401C273.457 16.3201 272.883 16.7068 272.323 17.2001V32.0001H266.123V11.2601H269.963C270.737 11.2601 271.243 11.6068 271.483 12.3001L271.843 13.5001ZM298.496 10.9401C300.069 10.9401 301.503 11.1868 302.796 11.6801C304.089 12.1734 305.196 12.8801 306.116 13.8001C307.049 14.7201 307.769 15.8401 308.276 17.1601C308.796 18.4668 309.056 19.9401 309.056 21.5801C309.056 23.2334 308.796 24.7268 308.276 26.0601C307.769 27.3801 307.049 28.5068 306.116 29.4401C305.196 30.3601 304.089 31.0734 302.796 31.5801C301.503 32.0734 300.069 32.3201 298.496 32.3201C296.909 32.3201 295.463 32.0734 294.156 31.5801C292.863 31.0734 291.743 30.3601 290.796 29.4401C289.863 28.5068 289.136 27.3801 288.616 26.0601C288.109 24.7268 287.856 23.2334 287.856 21.5801C287.856 19.9401 288.109 18.4668 288.616 17.1601C289.136 15.8401 289.863 14.7201 290.796 13.8001C291.743 12.8801 292.863 12.1734 294.156 11.6801C295.463 11.1868 296.909 10.9401 298.496 10.9401ZM298.496 27.7201C299.923 27.7201 300.969 27.2201 301.636 26.2201C302.316 25.2068 302.656 23.6734 302.656 21.6201C302.656 19.5668 302.316 18.0401 301.636 17.0401C300.969 16.0401 299.923 15.5401 298.496 15.5401C297.029 15.5401 295.956 16.0401 295.276 17.0401C294.596 18.0401 294.256 19.5668 294.256 21.6201C294.256 23.6734 294.596 25.2068 295.276 26.2201C295.956 27.2201 297.029 27.7201 298.496 27.7201ZM306.416 2.54009L301.216 7.80009C300.909 8.10676 300.616 8.32676 300.336 8.46009C300.056 8.58009 299.683 8.64009 299.216 8.64009H295.496L298.216 3.74009C298.443 3.35342 298.709 3.06009 299.016 2.86009C299.323 2.64676 299.789 2.54009 300.416 2.54009H306.416ZM327.418 16.1801C327.231 16.4068 327.051 16.5868 326.878 16.7201C326.705 16.8534 326.458 16.9201 326.138 16.9201C325.831 16.9201 325.551 16.8468 325.298 16.7001C325.058 16.5534 324.785 16.3934 324.478 16.2201C324.171 16.0334 323.811 15.8668 323.398 15.7201C322.985 15.5734 322.471 15.5001 321.858 15.5001C321.098 15.5001 320.438 15.6401 319.878 15.9201C319.331 16.2001 318.878 16.6001 318.518 17.1201C318.158 17.6401 317.891 18.2801 317.718 19.0401C317.545 19.7868 317.458 20.6334 317.458 21.5801C317.458 23.5668 317.838 25.0934 318.598 26.1601C319.371 27.2268 320.431 27.7601 321.778 27.7601C322.498 27.7601 323.065 27.6734 323.478 27.5001C323.905 27.3134 324.265 27.1134 324.558 26.9001C324.851 26.6734 325.118 26.4668 325.358 26.2801C325.611 26.0934 325.925 26.0001 326.298 26.0001C326.791 26.0001 327.165 26.1801 327.418 26.5401L329.218 28.7601C328.578 29.4934 327.905 30.0934 327.198 30.5601C326.491 31.0134 325.765 31.3734 325.018 31.6401C324.285 31.8934 323.545 32.0668 322.798 32.1601C322.051 32.2668 321.325 32.3201 320.618 32.3201C319.351 32.3201 318.138 32.0801 316.978 31.6001C315.831 31.1201 314.818 30.4268 313.938 29.5201C313.071 28.6001 312.378 27.4734 311.858 26.1401C311.351 24.8068 311.098 23.2868 311.098 21.5801C311.098 20.0868 311.318 18.6934 311.758 17.4001C312.211 16.0934 312.871 14.9668 313.738 14.0201C314.618 13.0601 315.698 12.3068 316.978 11.7601C318.271 11.2134 319.765 10.9401 321.458 10.9401C323.085 10.9401 324.511 11.2001 325.738 11.7201C326.965 12.2401 328.071 13.0001 329.058 14.0001L327.418 16.1801ZM344.18 19.1401C344.18 18.6468 344.113 18.1668 343.98 17.7001C343.86 17.2334 343.653 16.8201 343.36 16.4601C343.08 16.0868 342.706 15.7868 342.24 15.5601C341.773 15.3334 341.206 15.2201 340.54 15.2201C339.366 15.2201 338.446 15.5601 337.78 16.2401C337.113 16.9068 336.673 17.8734 336.46 19.1401H344.18ZM336.38 22.7401C336.58 24.4734 337.106 25.7334 337.96 26.5201C338.813 27.2934 339.913 27.6801 341.26 27.6801C341.98 27.6801 342.6 27.5934 343.12 27.4201C343.64 27.2468 344.1 27.0534 344.5 26.8401C344.913 26.6268 345.286 26.4334 345.62 26.2601C345.966 26.0868 346.326 26.0001 346.7 26.0001C347.193 26.0001 347.566 26.1801 347.82 26.5401L349.62 28.7601C348.98 29.4934 348.286 30.0934 347.54 30.5601C346.806 31.0134 346.046 31.3734 345.26 31.6401C344.486 31.8934 343.706 32.0668 342.92 32.1601C342.146 32.2668 341.406 32.3201 340.7 32.3201C339.246 32.3201 337.88 32.0868 336.6 31.6201C335.333 31.1401 334.22 30.4334 333.26 29.5001C332.313 28.5668 331.56 27.4068 331 26.0201C330.453 24.6334 330.18 23.0201 330.18 21.1801C330.18 19.7934 330.413 18.4801 330.88 17.2401C331.36 16.0001 332.04 14.9134 332.92 13.9801C333.813 13.0468 334.886 12.3068 336.14 11.7601C337.406 11.2134 338.833 10.9401 340.42 10.9401C341.793 10.9401 343.046 11.1534 344.18 11.5801C345.326 12.0068 346.306 12.6268 347.12 13.4401C347.946 14.2534 348.586 15.2534 349.04 16.4401C349.506 17.6134 349.74 18.9468 349.74 20.4401C349.74 20.9068 349.72 21.2868 349.68 21.5801C349.64 21.8734 349.566 22.1068 349.46 22.2801C349.353 22.4534 349.206 22.5734 349.02 22.6401C348.846 22.7068 348.62 22.7401 348.34 22.7401H336.38ZM358.562 13.5001C358.962 13.1268 359.376 12.7801 359.802 12.4601C360.229 12.1401 360.682 11.8734 361.162 11.6601C361.656 11.4334 362.182 11.2601 362.742 11.1401C363.316 11.0068 363.936 10.9401 364.602 10.9401C365.736 10.9401 366.736 11.1401 367.602 11.5401C368.482 11.9268 369.222 12.4734 369.822 13.1801C370.422 13.8734 370.876 14.7068 371.182 15.6801C371.489 16.6401 371.642 17.6868 371.642 18.8201V32.0001H365.442V18.8201C365.442 17.8068 365.209 17.0201 364.742 16.4601C364.276 15.8868 363.589 15.6001 362.682 15.6001C362.002 15.6001 361.362 15.7468 360.762 16.0401C360.176 16.3201 359.602 16.7068 359.042 17.2001V32.0001H352.842V11.2601H356.682C357.456 11.2601 357.962 11.6068 358.202 12.3001L358.562 13.5001ZM385.215 10.9401C386.788 10.9401 388.221 11.1868 389.515 11.6801C390.808 12.1734 391.915 12.8801 392.835 13.8001C393.768 14.7201 394.488 15.8401 394.995 17.1601C395.515 18.4668 395.775 19.9401 395.775 21.5801C395.775 23.2334 395.515 24.7268 394.995 26.0601C394.488 27.3801 393.768 28.5068 392.835 29.4401C391.915 30.3601 390.808 31.0734 389.515 31.5801C388.221 32.0734 386.788 32.3201 385.215 32.3201C383.628 32.3201 382.181 32.0734 380.875 31.5801C379.581 31.0734 378.461 30.3601 377.515 29.4401C376.581 28.5068 375.855 27.3801 375.335 26.0601C374.828 24.7268 374.575 23.2334 374.575 21.5801C374.575 19.9401 374.828 18.4668 375.335 17.1601C375.855 15.8401 376.581 14.7201 377.515 13.8001C378.461 12.8801 379.581 12.1734 380.875 11.6801C382.181 11.1868 383.628 10.9401 385.215 10.9401ZM385.215 27.7201C386.641 27.7201 387.688 27.2201 388.355 26.2201C389.035 25.2068 389.375 23.6734 389.375 21.6201C389.375 19.5668 389.035 18.0401 388.355 17.0401C387.688 16.0401 386.641 15.5401 385.215 15.5401C383.748 15.5401 382.675 16.0401 381.995 17.0401C381.315 18.0401 380.975 19.5668 380.975 21.6201C380.975 23.6734 381.315 25.2068 381.995 26.2201C382.675 27.2201 383.748 27.7201 385.215 27.7201ZM412.077 15.8001C411.917 16.0534 411.744 16.2334 411.557 16.3401C411.384 16.4468 411.157 16.5001 410.877 16.5001C410.584 16.5001 410.29 16.4401 409.997 16.3201C409.704 16.1868 409.384 16.0468 409.037 15.9001C408.704 15.7534 408.324 15.6201 407.897 15.5001C407.47 15.3668 406.984 15.3001 406.437 15.3001C405.65 15.3001 405.044 15.4534 404.617 15.7601C404.204 16.0534 403.997 16.4668 403.997 17.0001C403.997 17.3868 404.13 17.7068 404.397 17.9601C404.677 18.2134 405.044 18.4401 405.497 18.6401C405.95 18.8268 406.464 19.0068 407.037 19.1801C407.61 19.3534 408.197 19.5468 408.797 19.7601C409.397 19.9734 409.984 20.2268 410.557 20.5201C411.13 20.8001 411.644 21.1534 412.097 21.5801C412.55 21.9934 412.91 22.5001 413.177 23.1001C413.457 23.7001 413.597 24.4201 413.597 25.2601C413.597 26.2868 413.41 27.2334 413.037 28.1001C412.664 28.9668 412.104 29.7134 411.357 30.3401C410.624 30.9668 409.71 31.4534 408.617 31.8001C407.537 32.1468 406.29 32.3201 404.877 32.3201C404.17 32.3201 403.464 32.2534 402.757 32.1201C402.05 31.9868 401.364 31.8068 400.697 31.5801C400.044 31.3534 399.437 31.0868 398.877 30.7801C398.317 30.4601 397.837 30.1201 397.437 29.7601L398.877 27.4801C399.037 27.2134 399.237 27.0068 399.477 26.8601C399.73 26.7001 400.05 26.6201 400.437 26.6201C400.797 26.6201 401.117 26.7001 401.397 26.8601C401.69 27.0201 402.004 27.1934 402.337 27.3801C402.67 27.5668 403.057 27.7401 403.497 27.9001C403.95 28.0601 404.517 28.1401 405.197 28.1401C405.677 28.1401 406.084 28.0934 406.417 28.0001C406.75 27.8934 407.017 27.7534 407.217 27.5801C407.417 27.4068 407.564 27.2134 407.657 27.0001C407.75 26.7868 407.797 26.5668 407.797 26.3401C407.797 25.9268 407.657 25.5868 407.377 25.3201C407.097 25.0534 406.73 24.8268 406.277 24.6401C405.824 24.4401 405.304 24.2601 404.717 24.1001C404.144 23.9268 403.557 23.7334 402.957 23.5201C402.357 23.3068 401.764 23.0534 401.177 22.7601C400.604 22.4534 400.09 22.0734 399.637 21.6201C399.184 21.1534 398.817 20.5868 398.537 19.9201C398.257 19.2534 398.117 18.4468 398.117 17.5001C398.117 16.6201 398.284 15.7868 398.617 15.0001C398.964 14.2001 399.477 13.5001 400.157 12.9001C400.837 12.3001 401.69 11.8268 402.717 11.4801C403.744 11.1201 404.944 10.9401 406.317 10.9401C407.064 10.9401 407.784 11.0068 408.477 11.1401C409.184 11.2734 409.844 11.4601 410.457 11.7001C411.07 11.9401 411.63 12.2268 412.137 12.5601C412.644 12.8801 413.09 13.2334 413.477 13.6201L412.077 15.8001Z" fill="white"/>
</svg>

<svg width="415" height="34" fill="none" xmlns="http://www.w3.org/2000/svg"><path d="m163.193 32.435 15.273-15.44.449-.455-.449-.454L163.193.646h22.177l15.722 15.894-15.722 15.895h-22.177Z" stroke="#922630"/><path opacity=".8" d="m129.302 32.435 15.273-15.44.45-.455-.45-.454L129.302.646h22.177l15.723 15.894-15.723 15.895h-22.177Z" stroke="#922630"/><path opacity=".7" d="M117.858 0H93.863l16.362 16.54-16.362 16.54h23.995l16.362-16.54L117.858 0Z" fill="#922630"/><path opacity=".5" d="m73.678 16.953.445-.453-.445-.453L58.541.647h21.97L96.095 16.5 80.512 32.354h-21.97l15.136-15.401Z" stroke="#922630"/><path opacity=".3" d="m39.678 16.953.445-.453-.445-.453L24.541.647h21.97L62.095 16.5 46.512 32.354h-21.97l15.136-15.401Z" stroke="#922630"/><path d="M12.783 0H-11L5.217 16.5-11 33h23.783L29 16.5 12.783 0Z" fill="#922630"/><path d="M237.46 24.46c.16 0 .32.033.48.1.16.053.313.153.46.3l2.68 2.82a11.194 11.194 0 0 1-4.42 3.48c-1.76.773-3.847 1.16-6.26 1.16-2.213 0-4.2-.373-5.96-1.12-1.747-.76-3.233-1.8-4.46-3.12-1.213-1.333-2.147-2.907-2.8-4.72-.653-1.827-.98-3.807-.98-5.94 0-2.173.353-4.167 1.06-5.98.707-1.827 1.7-3.4 2.98-4.72 1.28-1.32 2.813-2.347 4.6-3.08 1.787-.733 3.753-1.1 5.9-1.1 1.093 0 2.12.1 3.08.3.973.187 1.88.453 2.72.8a12.174 12.174 0 0 1 4.2 2.78l-2.28 3.06a3.21 3.21 0 0 1-.52.52c-.2.147-.48.22-.84.22-.24 0-.467-.053-.68-.16a9.293 9.293 0 0 1-.68-.38c-.24-.16-.507-.327-.8-.5a4.847 4.847 0 0 0-1.02-.5 7.476 7.476 0 0 0-1.38-.4c-.52-.107-1.133-.16-1.84-.16-1.12 0-2.147.207-3.08.62a6.758 6.758 0 0 0-2.4 1.82c-.667.787-1.187 1.76-1.56 2.92-.36 1.147-.54 2.46-.54 3.94 0 1.493.2 2.82.6 3.98.413 1.16.967 2.14 1.66 2.94a7.204 7.204 0 0 0 2.46 1.8c.933.413 1.933.62 3 .62.613 0 1.173-.027 1.68-.08.507-.067.98-.167 1.42-.3.44-.147.853-.333 1.24-.56.387-.24.78-.54 1.18-.9.16-.133.333-.24.52-.32.187-.093.38-.14.58-.14Zm14.981-13.52c1.574 0 3.007.247 4.3.74 1.294.493 2.4 1.2 3.32 2.12.934.92 1.654 2.04 2.16 3.36.52 1.307.78 2.78.78 4.42 0 1.653-.26 3.147-.78 4.48-.506 1.32-1.226 2.447-2.16 3.38-.92.92-2.026 1.633-3.32 2.14-1.293.493-2.726.74-4.3.74-1.586 0-3.033-.247-4.34-.74a9.996 9.996 0 0 1-3.36-2.14c-.933-.933-1.66-2.06-2.18-3.38-.506-1.333-.76-2.827-.76-4.48 0-1.64.254-3.113.76-4.42.52-1.32 1.247-2.44 2.18-3.36a9.746 9.746 0 0 1 3.36-2.12c1.307-.493 2.754-.74 4.34-.74Zm0 16.78c1.427 0 2.474-.5 3.14-1.5.68-1.013 1.02-2.547 1.02-4.6 0-2.053-.34-3.58-1.02-4.58-.666-1-1.713-1.5-3.14-1.5-1.466 0-2.54.5-3.22 1.5-.68 1-1.02 2.527-1.02 4.58s.34 3.587 1.02 4.6c.68 1 1.754 1.5 3.22 1.5Zm19.402-14.22c.4-.373.814-.72 1.24-1.04.427-.32.88-.587 1.36-.8.494-.227 1.02-.4 1.58-.52a8.212 8.212 0 0 1 1.86-.2c1.134 0 2.134.2 3 .6.88.387 1.62.933 2.22 1.64.6.693 1.054 1.527 1.36 2.5.307.96.46 2.007.46 3.14V32h-6.2V18.82c0-1.013-.233-1.8-.7-2.36-.466-.573-1.153-.86-2.06-.86-.68 0-1.32.147-1.92.44-.586.28-1.16.667-1.72 1.16V32h-6.2V11.26h3.84c.774 0 1.28.347 1.52 1.04l.36 1.2Zm26.653-2.56c1.573 0 3.007.247 4.3.74 1.293.493 2.4 1.2 3.32 2.12.933.92 1.653 2.04 2.16 3.36.52 1.307.78 2.78.78 4.42 0 1.653-.26 3.147-.78 4.48-.507 1.32-1.227 2.447-2.16 3.38-.92.92-2.027 1.633-3.32 2.14-1.293.493-2.727.74-4.3.74-1.587 0-3.033-.247-4.34-.74a9.996 9.996 0 0 1-3.36-2.14c-.933-.933-1.66-2.06-2.18-3.38-.507-1.333-.76-2.827-.76-4.48 0-1.64.253-3.113.76-4.42.52-1.32 1.247-2.44 2.18-3.36a9.746 9.746 0 0 1 3.36-2.12c1.307-.493 2.753-.74 4.34-.74Zm0 16.78c1.427 0 2.473-.5 3.14-1.5.68-1.013 1.02-2.547 1.02-4.6 0-2.053-.34-3.58-1.02-4.58-.667-1-1.713-1.5-3.14-1.5-1.467 0-2.54.5-3.22 1.5-.68 1-1.02 2.527-1.02 4.58s.34 3.587 1.02 4.6c.68 1 1.753 1.5 3.22 1.5Zm7.92-25.18-5.2 5.26c-.307.307-.6.527-.88.66-.28.12-.653.18-1.12.18h-3.72l2.72-4.9c.227-.387.493-.68.8-.88.307-.213.773-.32 1.4-.32h6Zm21.002 13.64a3.454 3.454 0 0 1-.54.54c-.173.133-.42.2-.74.2-.307 0-.587-.073-.84-.22-.24-.147-.513-.307-.82-.48a5.842 5.842 0 0 0-1.08-.5c-.413-.147-.927-.22-1.54-.22-.76 0-1.42.14-1.98.42-.547.28-1 .68-1.36 1.2-.36.52-.627 1.16-.8 1.92-.173.747-.26 1.593-.26 2.54 0 1.987.38 3.513 1.14 4.58.773 1.067 1.833 1.6 3.18 1.6.72 0 1.287-.087 1.7-.26a5.754 5.754 0 0 0 1.08-.6l.8-.62c.253-.187.567-.28.94-.28.493 0 .867.18 1.12.54l1.8 2.22c-.64.733-1.313 1.333-2.02 1.8a10.7 10.7 0 0 1-2.18 1.08 10.93 10.93 0 0 1-2.22.52c-.747.107-1.473.16-2.18.16-1.267 0-2.48-.24-3.64-.72a9.087 9.087 0 0 1-3.04-2.08c-.867-.92-1.56-2.047-2.08-3.38-.507-1.333-.76-2.853-.76-4.56 0-1.493.22-2.887.66-4.18.453-1.307 1.113-2.433 1.98-3.38.88-.96 1.96-1.713 3.24-2.26 1.293-.547 2.787-.82 4.48-.82 1.627 0 3.053.26 4.28.78a10.27 10.27 0 0 1 3.32 2.28l-1.64 2.18Zm16.762 2.96c0-.493-.067-.973-.2-1.44a3.202 3.202 0 0 0-.62-1.24 3.023 3.023 0 0 0-1.12-.9c-.467-.227-1.034-.34-1.7-.34-1.174 0-2.094.34-2.76 1.02-.667.667-1.107 1.633-1.32 2.9h7.72Zm-7.8 3.6c.2 1.733.726 2.993 1.58 3.78.853.773 1.953 1.16 3.3 1.16.72 0 1.34-.087 1.86-.26.52-.173.98-.367 1.38-.58l1.12-.58c.346-.173.706-.26 1.08-.26.493 0 .866.18 1.12.54l1.8 2.22a9.353 9.353 0 0 1-2.08 1.8c-.734.453-1.494.813-2.28 1.08-.774.253-1.554.427-2.34.52-.774.107-1.514.16-2.22.16-1.454 0-2.82-.233-4.1-.7a9.635 9.635 0 0 1-3.34-2.12c-.947-.933-1.7-2.093-2.26-3.48-.547-1.387-.82-3-.82-4.84 0-1.387.233-2.7.7-3.94a9.918 9.918 0 0 1 2.04-3.26c.893-.933 1.966-1.673 3.22-2.22 1.266-.547 2.693-.82 4.28-.82 1.373 0 2.626.213 3.76.64 1.146.427 2.126 1.047 2.94 1.86.826.813 1.466 1.813 1.92 3 .466 1.173.7 2.507.7 4 0 .467-.02.847-.06 1.14-.04.293-.114.527-.22.7a.838.838 0 0 1-.44.36c-.174.067-.4.1-.68.1h-11.96Zm22.182-9.24c.4-.373.814-.72 1.24-1.04.427-.32.88-.587 1.36-.8.494-.227 1.02-.4 1.58-.52a8.212 8.212 0 0 1 1.86-.2c1.134 0 2.134.2 3 .6.88.387 1.62.933 2.22 1.64.6.693 1.054 1.527 1.36 2.5.307.96.46 2.007.46 3.14V32h-6.2V18.82c0-1.013-.233-1.8-.7-2.36-.466-.573-1.153-.86-2.06-.86-.68 0-1.32.147-1.92.44-.586.28-1.16.667-1.72 1.16V32h-6.2V11.26h3.84c.774 0 1.28.347 1.52 1.04l.36 1.2Zm26.653-2.56c1.573 0 3.006.247 4.3.74 1.293.493 2.4 1.2 3.32 2.12.933.92 1.653 2.04 2.16 3.36.52 1.307.78 2.78.78 4.42 0 1.653-.26 3.147-.78 4.48-.507 1.32-1.227 2.447-2.16 3.38-.92.92-2.027 1.633-3.32 2.14-1.294.493-2.727.74-4.3.74-1.587 0-3.034-.247-4.34-.74a9.976 9.976 0 0 1-3.36-2.14c-.934-.933-1.66-2.06-2.18-3.38-.507-1.333-.76-2.827-.76-4.48 0-1.64.253-3.113.76-4.42.52-1.32 1.246-2.44 2.18-3.36a9.727 9.727 0 0 1 3.36-2.12c1.306-.493 2.753-.74 4.34-.74Zm0 16.78c1.426 0 2.473-.5 3.14-1.5.68-1.013 1.02-2.547 1.02-4.6 0-2.053-.34-3.58-1.02-4.58-.667-1-1.714-1.5-3.14-1.5-1.467 0-2.54.5-3.22 1.5-.68 1-1.02 2.527-1.02 4.58s.34 3.587 1.02 4.6c.68 1 1.753 1.5 3.22 1.5Zm26.862-11.92c-.16.253-.333.433-.52.54-.173.107-.4.16-.68.16-.293 0-.587-.06-.88-.18a39.012 39.012 0 0 0-.96-.42 8.629 8.629 0 0 0-1.14-.4 4.894 4.894 0 0 0-1.46-.2c-.787 0-1.393.153-1.82.46-.413.293-.62.707-.62 1.24 0 .387.133.707.4.96.28.253.647.48 1.1.68.453.187.967.367 1.54.54.573.173 1.16.367 1.76.58.6.213 1.187.467 1.76.76.573.28 1.087.633 1.54 1.06.453.413.813.92 1.08 1.52.28.6.42 1.32.42 2.16 0 1.027-.187 1.973-.56 2.84a5.98 5.98 0 0 1-1.68 2.24c-.733.627-1.647 1.113-2.74 1.46-1.08.347-2.327.52-3.74.52-.707 0-1.413-.067-2.12-.2a15.062 15.062 0 0 1-2.06-.54 11.922 11.922 0 0 1-1.82-.8c-.56-.32-1.04-.66-1.44-1.02l1.44-2.28c.16-.267.36-.473.6-.62.253-.16.573-.24.96-.24.36 0 .68.08.96.24.293.16.607.333.94.52.333.187.72.36 1.16.52.453.16 1.02.24 1.7.24.48 0 .887-.047 1.22-.14.333-.107.6-.247.8-.42.2-.173.347-.367.44-.58.093-.213.14-.433.14-.66 0-.413-.14-.753-.42-1.02-.28-.267-.647-.493-1.1-.68-.453-.2-.973-.38-1.56-.54a38.747 38.747 0 0 1-1.76-.58c-.6-.213-1.193-.467-1.78-.76a6.502 6.502 0 0 1-1.54-1.14 5.426 5.426 0 0 1-1.1-1.7c-.28-.667-.42-1.473-.42-2.42 0-.88.167-1.713.5-2.5.347-.8.86-1.5 1.54-2.1.68-.6 1.533-1.073 2.56-1.42 1.027-.36 2.227-.54 3.6-.54.747 0 1.467.067 2.16.2.707.133 1.367.32 1.98.56a9.06 9.06 0 0 1 1.68.86c.507.32.953.673 1.34 1.06l-1.4 2.18Z" fill="#fff"/></svg>
